web/packages/design/src/ResourceIcon/assets/aws-dark.svg

<svg width="72" height="72" viewBox="0 0 72 72" fill="none" xmlns="http://www.w3.org/2000/svg">
<path d="M20.2899 30.0369C20.2899 30.923 20.3856 31.6414 20.5533 32.1682C20.7448 32.695 20.9843 33.2697 21.3196 33.8923C21.4393 34.0839 21.4872 34.2755 21.4872 34.4431C21.4872 34.6826 21.3435 34.922 21.0322 35.1615L19.5236 36.1672C19.3081 36.3109 19.0925 36.3828 18.901 36.3828C18.6615 36.3828 18.422 36.263 18.1826 36.0475C17.8473 35.6883 17.56 35.3052 17.3205 34.922C17.081 34.5149 16.8416 34.06 16.5782 33.5092C14.7103 35.7123 12.3636 36.8138 9.53789 36.8138C7.52639 36.8138 5.92198 36.2391 4.7486 35.0896C3.57522 33.9402 2.97656 32.4076 2.97656 30.4919C2.97656 28.4565 3.69496 26.8042 5.15569 25.559C6.61643 24.3137 8.55609 23.6911 11.0226 23.6911C11.8368 23.6911 12.6749 23.763 13.5609 23.8827C14.4469 24.0024 15.3569 24.194 16.3147 24.4095V22.6614C16.3147 20.8415 15.9316 19.5723 15.1893 18.83C14.423 18.0877 13.1299 17.7285 11.286 17.7285C10.4479 17.7285 9.58579 17.8242 8.69977 18.0398C7.81375 18.2553 6.95168 18.5187 6.11355 18.8539C5.73041 19.0216 5.44305 19.1174 5.27542 19.1652C5.1078 19.2131 4.98807 19.2371 4.89228 19.2371C4.55703 19.2371 4.3894 18.9976 4.3894 18.4947V17.3214C4.3894 16.9382 4.4373 16.6509 4.55703 16.4832C4.67676 16.3156 4.89228 16.148 5.22753 15.9804C6.06566 15.5493 7.07141 15.1901 8.24478 14.9028C9.41816 14.5915 10.6634 14.4478 11.9804 14.4478C14.8301 14.4478 16.9134 15.0943 18.2544 16.3875C19.5715 17.6806 20.242 19.6442 20.242 22.2783V30.0369H20.2899ZM10.5676 33.6768C11.3578 33.6768 12.172 33.5331 13.0341 33.2458C13.8962 32.9584 14.6624 32.4316 15.309 31.7132C15.6921 31.2582 15.9795 30.7553 16.1232 30.1806C16.2669 29.6059 16.3626 28.9115 16.3626 28.0973V27.0915C15.6682 26.9239 14.9258 26.7802 14.1596 26.6844C13.3933 26.5887 12.6509 26.5408 11.9086 26.5408C10.3042 26.5408 9.1308 26.8521 8.34057 27.4986C7.55034 28.1452 7.16719 29.0551 7.16719 30.2525C7.16719 31.3779 7.45455 32.2161 8.05321 32.7908C8.62793 33.3895 9.46605 33.6768 10.5676 33.6768ZM29.7966 36.263C29.3656 36.263 29.0782 36.1912 28.8866 36.0236C28.6951 35.8799 28.5274 35.5446 28.3838 35.0896L22.7563 16.579C22.6127 16.1001 22.5408 15.7888 22.5408 15.6212C22.5408 15.238 22.7324 15.0225 23.1155 15.0225H25.4623C25.9173 15.0225 26.2286 15.0943 26.3962 15.262C26.5878 15.4057 26.7315 15.7409 26.8751 16.1959L30.8981 32.0484L34.6338 16.1959C34.7535 15.717 34.8972 15.4057 35.0888 15.262C35.2803 15.1183 35.6156 15.0225 36.0466 15.0225H37.9623C38.4173 15.0225 38.7286 15.0943 38.9202 15.262C39.1118 15.4057 39.2794 15.7409 39.3752 16.1959L43.1587 32.24L47.3015 16.1959C47.4451 15.717 47.6128 15.4057 47.7804 15.262C47.972 15.1183 48.2833 15.0225 48.7143 15.0225H50.9413C51.3245 15.0225 51.54 15.2141 51.54 15.6212C51.54 15.7409 51.516 15.8606 51.4921 16.0043C51.4682 16.148 51.4203 16.3396 51.3245 16.603L45.5534 35.1136C45.4097 35.5925 45.2421 35.9038 45.0505 36.0475C44.8589 36.1912 44.5476 36.287 44.1405 36.287H42.0811C41.6262 36.287 41.3148 36.2151 41.1233 36.0475C40.9317 35.8799 40.7641 35.5686 40.6683 35.0896L36.9566 19.6442L33.2688 35.0657C33.1491 35.5446 33.0054 35.8559 32.8139 36.0236C32.6223 36.1912 32.287 36.263 31.856 36.263H29.7966ZM60.5678 36.9096C59.3226 36.9096 58.0774 36.7659 56.8801 36.4785C55.6827 36.1912 54.7488 35.8799 54.1262 35.5207C53.7431 35.3052 53.4797 35.0657 53.3839 34.8502C53.2881 34.6347 53.2402 34.3952 53.2402 34.1797V32.9584C53.2402 32.4555 53.4318 32.2161 53.791 32.2161C53.9346 32.2161 54.0783 32.24 54.222 32.2879C54.3657 32.3358 54.5812 32.4316 54.8207 32.5274C55.6348 32.8866 56.5209 33.1739 57.4548 33.3655C58.4126 33.5571 59.3465 33.6529 60.3044 33.6529C61.813 33.6529 62.9864 33.3895 63.8006 32.8626C64.6148 32.3358 65.0458 31.5695 65.0458 30.5877C65.0458 29.9172 64.8303 29.3664 64.3992 28.9115C63.9682 28.4565 63.154 28.0494 61.9807 27.6662L58.5084 26.5887C56.7603 26.0379 55.4672 25.2237 54.677 24.1461C53.8867 23.0925 53.4797 21.9191 53.4797 20.6739C53.4797 19.6681 53.6952 18.7821 54.1262 18.0158C54.5572 17.2495 55.132 16.579 55.8504 16.0522C56.5687 15.5014 57.3829 15.0943 58.3408 14.807C59.2986 14.5196 60.3044 14.3999 61.358 14.3999C61.8849 14.3999 62.4356 14.4238 62.9625 14.4957C63.5132 14.5675 64.0161 14.6633 64.519 14.7591C64.9979 14.8788 65.4529 14.9986 65.8839 15.1422C66.315 15.2859 66.6502 15.4296 66.8897 15.5733C67.2249 15.7649 67.4644 15.9564 67.6081 16.1719C67.7517 16.3635 67.8236 16.6269 67.8236 16.9622V18.0877C67.8236 18.5905 67.632 18.8539 67.2728 18.8539C67.0813 18.8539 66.7699 18.7582 66.3629 18.5666C64.9979 17.944 63.4653 17.6327 61.7651 17.6327C60.4002 17.6327 59.3226 17.8482 58.5803 18.3032C57.8379 18.7582 57.4548 19.4526 57.4548 20.4344C57.4548 21.1049 57.6942 21.6796 58.1732 22.1346C58.6521 22.5896 59.5381 23.0446 60.8073 23.4517L64.2077 24.5293C65.9318 25.08 67.177 25.8463 67.9194 26.8281C68.6617 27.8099 69.0209 28.9354 69.0209 30.1806C69.0209 31.2103 68.8054 32.1442 68.3983 32.9584C67.9673 33.7726 67.3926 34.491 66.6502 35.0657C65.9079 35.6644 65.0219 36.0954 63.9922 36.4067C62.9146 36.742 61.7891 36.9096 60.5678 36.9096Z" fill="white"/>
<path fill-rule="evenodd" clip-rule="evenodd" d="M65.0942 48.5475C57.2158 54.3665 45.7694 57.4556 35.9274 57.4556C22.1342 57.4556 9.70599 52.355 0.318971 43.878C-0.423369 43.2075 0.247132 42.2975 1.13315 42.8243C11.2865 48.7152 23.8105 52.2832 36.7655 52.2832C45.5059 52.2832 55.1085 50.4633 63.9447 46.7276C65.2618 46.1289 66.3873 47.5897 65.0942 48.5475Z" fill="#FF9900"/>
<path fill-rule="evenodd" clip-rule="evenodd" d="M68.375 44.8121C67.3693 43.519 61.7179 44.1895 59.1556 44.5008C58.3893 44.5965 58.2696 43.926 58.964 43.4232C63.466 40.2622 70.8654 41.1722 71.7275 42.2258C72.5896 43.3034 71.488 50.7029 67.2735 54.247C66.6269 54.7977 66.0043 54.5104 66.2917 53.792C67.2495 51.4213 69.3808 46.0812 68.375 44.8121Z" fill="#FF9900"/>
</svg>

<svg xmlns="http://www.w3.org/2000/svg" width="72" height="72" fill="none" viewBox="0 0 72 72"><path fill="#fff" d="M20.29 30.037c0 .886.096 1.604.263 2.131.192.527.431 1.102.767 1.724.12.192.167.383.167.551 0 .24-.143.479-.455.718l-1.508 1.006c-.216.144-.431.216-.623.216-.24 0-.479-.12-.718-.336a7.4 7.4 0 0 1-.863-1.125 19 19 0 0 1-.742-1.413q-2.802 3.305-7.04 3.305c-2.012 0-3.616-.575-4.79-1.724s-1.771-2.682-1.771-4.598c0-2.036.718-3.688 2.179-4.933s3.4-1.868 5.867-1.868c.814 0 1.652.072 2.538.192s1.796.311 2.754.527v-1.75c0-1.82-.383-3.089-1.126-3.831-.766-.742-2.06-1.101-3.903-1.101-.838 0-1.7.095-2.586.31a19 19 0 0 0-2.586.815c-.384.168-.67.263-.839.311a1.5 1.5 0 0 1-.383.072c-.335 0-.503-.24-.503-.742V17.32c0-.383.048-.67.168-.838s.335-.335.67-.503q1.258-.646 3.018-1.077c1.173-.312 2.418-.455 3.735-.455 2.85 0 4.933.646 6.274 1.94 1.317 1.293 1.988 3.256 1.988 5.89v7.759zm-9.722 3.64c.79 0 1.604-.144 2.466-.431s1.628-.814 2.275-1.533c.383-.455.67-.958.814-1.532s.24-1.27.24-2.084v-1.006a20 20 0 0 0-2.203-.407 18 18 0 0 0-2.251-.143c-1.605 0-2.778.311-3.568.958-.79.646-1.174 1.556-1.174 2.754 0 1.125.288 1.963.886 2.538.575.599 1.413.886 2.515.886m19.229 2.586c-.431 0-.719-.072-.91-.24-.192-.143-.36-.478-.503-.933l-5.628-18.511c-.143-.479-.215-.79-.215-.958 0-.383.191-.598.575-.598h2.346c.455 0 .767.071.934.239.192.144.335.479.48.934l4.022 15.852 3.736-15.852c.12-.479.263-.79.455-.934.191-.144.527-.24.958-.24h1.915c.455 0 .767.072.958.24.192.144.36.479.455.934L43.16 32.24l4.14-16.044c.144-.479.312-.79.48-.934.191-.144.502-.24.933-.24h2.227c.383 0 .599.192.599.6 0 .119-.024.239-.048.382a3.4 3.4 0 0 1-.167.599l-5.772 18.51q-.214.719-.502.934c-.192.144-.503.24-.91.24h-2.06c-.455 0-.766-.072-.958-.24s-.359-.478-.455-.957l-3.711-15.446-3.688 15.422c-.12.479-.264.79-.455.958-.192.167-.527.239-.958.239zm30.77.647c-1.244 0-2.49-.144-3.687-.431s-2.131-.6-2.754-.958c-.383-.216-.646-.455-.742-.67a1.7 1.7 0 0 1-.144-.671v-1.222c0-.502.192-.742.551-.742q.215 0 .431.072c.144.048.36.144.599.24.814.359 1.7.646 2.634.837.958.192 1.892.288 2.85.288 1.508 0 2.681-.264 3.496-.79.814-.527 1.245-1.293 1.245-2.275 0-.67-.216-1.222-.647-1.677-.43-.455-1.245-.862-2.418-1.245l-3.473-1.077c-1.748-.551-3.04-1.365-3.831-2.443-.79-1.053-1.197-2.227-1.197-3.472q0-1.509.646-2.658a6.2 6.2 0 0 1 1.724-1.964c.719-.55 1.533-.958 2.49-1.245.959-.287 1.964-.407 3.018-.407.527 0 1.078.024 1.605.096.55.072 1.053.167 1.556.263.479.12.934.24 1.365.383q.646.216 1.006.431c.335.192.574.383.718.599q.216.287.216.79v1.126c0 .502-.192.766-.551.766-.192 0-.503-.096-.91-.287q-2.048-.934-4.598-.934c-1.365 0-2.442.215-3.185.67s-1.125 1.15-1.125 2.131c0 .67.24 1.246.718 1.7.48.456 1.365.91 2.634 1.318l3.4 1.077c1.725.551 2.97 1.317 3.712 2.3.743.98 1.102 2.106 1.102 3.352 0 1.03-.216 1.963-.623 2.777a6.4 6.4 0 0 1-1.748 2.108c-.742.598-1.628 1.03-2.658 1.34a11.4 11.4 0 0 1-3.424.504"/><path fill="#f90" fill-rule="evenodd" d="M65.094 48.548c-7.878 5.819-19.325 8.908-29.167 8.908-13.793 0-26.221-5.101-35.608-13.578-.742-.67-.072-1.58.814-1.054 10.154 5.891 22.678 9.46 35.633 9.46 8.74 0 18.343-1.82 27.179-5.556 1.317-.6 2.442.862 1.15 1.82" clip-rule="evenodd"/><path fill="#f90" fill-rule="evenodd" d="M68.375 44.812c-1.006-1.293-6.657-.622-9.22-.311-.766.096-.885-.575-.191-1.078 4.502-3.16 11.901-2.25 12.764-1.197.862 1.077-.24 8.477-4.454 12.021-.647.55-1.27.263-.982-.455.957-2.37 3.089-7.71 2.083-8.98" clip-rule="evenodd"/></svg>
